X: 38394
T: Star Of Munster, The
R: reel
M: 4/4
K: Adorian
ed|:c2 Ac B2 GB|AGEF GEDD|EAAB cBcd|eaaf gedB|
cBAc BAGB|AGEF GEDG|EAAB cded|1 cABG A2 ed:|2 cABG A2 Bd||
|:eaab ageg|agbg agef|[g2B2] ga gedg|geaf gedg|
eaab ageg|agbg agef|[g2B2] gg [a2A2] aa|b3 a gedB:|

